public/about/hero-ray.svg

<svg xmlns="http://www.w3.org/2000/svg" fill="none" overflow="visible" preserveAspectRatio="none" style="display:block" viewBox="0 0 1887 819.603"><g filter="url(#a)"><path fill="url(#b)" d="M225 281.581c0-37.504 36.147-64.408 72.074-53.644l452.562 135.605a56 56 0 0 0 16.074 2.356h342.28c5.31 0 10.6-.757 15.7-2.248l466.6-136.353c35.85-10.476 71.71 16.406 71.71 53.752v257.512c0 36.76-34.82 63.55-70.35 54.13l-468.6-124.228a56 56 0 0 0-14.35-1.87H764.976c-4.962 0-9.902.659-14.69 1.961L295.689 592.126C260.076 601.807 225 574.993 225 538.087z"/></g><defs><radialGradient id="b" cx="0" cy="0" r="1" gradientTransform="matrix(0 202.5 -718.5 0 943.5 408.842)" gradientUnits="userSpaceOnUse"><stop offset=".394" stop-color="#3d8bff"/><stop offset=".654" stop-color="#2c80ff"/><stop offset="1" stop-color="#0051ff"/></radialGradient><filter id="a" width="1887" height="819.603" x="0" y="0" color-interpolation-filters="sRGB" filterUnits="userSpaceOnUse"><feFlood flood-opacity="0" result="BackgroundImageFix"/><feBlend in="SourceGraphic" in2="BackgroundImageFix" result="shape"/><feGaussianBlur result="effect1_foregroundBlur_about_rect_17417" stdDeviation="102"/></filter></defs></svg>

<svg preserveAspectRatio="none" width="100%" height="100%" overflow="visible" style="display: block;" viewBox="0 0 1887 819.603" fill="none" xmlns="http://www.w3.org/2000/svg">
<g filter="url(#filter0_f_about_rect_17417)">
<path d="M225 281.581C225 244.077 261.147 217.173 297.074 227.937L749.636 363.542C754.851 365.104 760.266 365.898 765.71 365.898H1107.99C1113.3 365.898 1118.59 365.141 1123.69 363.65L1590.29 227.297C1626.14 216.821 1662 243.703 1662 281.049V538.561C1662 575.321 1627.18 602.111 1591.65 592.691L1123.05 468.463C1118.37 467.222 1113.55 466.593 1108.7 466.593H764.976C760.014 466.593 755.074 467.252 750.286 468.554L295.689 592.126C260.076 601.807 225 574.993 225 538.087V281.581Z" fill="url(#paint0_radial_about_rect_17417)"/>
</g>
<defs>
<filter id="filter0_f_about_rect_17417" x="0" y="0" width="1887" height="819.603" filterUnits="userSpaceOnUse" color-interpolation-filters="sRGB">
<feFlood flood-opacity="0" result="BackgroundImageFix"/>
<feBlend mode="normal" in="SourceGraphic" in2="BackgroundImageFix" result="shape"/>
<feGaussianBlur stdDeviation="102" result="effect1_foregroundBlur_about_rect_17417"/>
</filter>
<radialGradient id="paint0_radial_about_rect_17417" cx="0" cy="0" r="1" gradientUnits="userSpaceOnUse" gradientTransform="translate(943.5 408.842) rotate(90) scale(202.5 718.5)">
<stop offset="0.394231" stop-color="#3D8BFF"/>
<stop offset="0.653846" stop-color="#2C80FF"/>
<stop offset="1" stop-color="#0051FF"/>
</radialGradient>
</defs>
</svg>
